!!!!SEGMENT:pl-wtm--r-1054_kurpinski-karol-prozno-milosc-prawdziwa.krn
!!!id: 18xx:2172
!!!COM: Kurpiński, Karol
!!!OTL: Próźno miłość prawdziwa
!!!PDT:
!!!SMS-siglum: PL-Wtm
!!!SMS-shelfmark: R 1054
!!!NIFC-rismID: 1001087641
!!!URL-scan: http://repozytorium.nifc.pl/skany/pl-wtm-nut--r1054
!!!ONB-nifc: UWAGA: Na drugiej stronie fragment partii wokalnej pochodzącej z innego utworu
!!!SMS-variant:
!!!SMS-altvar:
**kern	**kern	**text
*part2	*part1	*part1
*staff2	*staff1	*staff1
*I"2o	*I"Io	*
*clefG2	*clefG2	*
*k[f#]	*k[f#]	*
*M2/4	*M2/4	*
!	!LO:TX:t=P:problem:all\middle or left:global	!
8gg\	8bb\	pro-
=1	=1	=1
8gg\L	8bb\L	-zna
8ff#\	8aa\	mi-
8gg\	8bb\	-łość
8aa\J	8ccc\J	.
=2	=2	=2
4bb\	4ddd\	praw-
8aa\L	8ccc\L	-dzi-
8gg\J	8bb\J	-wa
=3	=3	=3
8ff#\L	8aa\L	czu-
8ff#\J	8aa\J	-cia
16aa\LL	16ccc\LL	swe
16gg\	16bb\	.
16ff#\	16aa\	u-
16gg\JJ	16bb\JJ	-kry-
=4	=4	=4
4ff#\	4aa\	-wa
4r	8r	.
.	8dd\	zbyt
=5	=5	=5
!LO:TX:a:t=I	!	!
2r	8gg\L	pię-
.	8gg\	.
.	8gg\	-kne
.	8gg\J	.
=6	=6	=6
!	!LO:N:vis=8	!
4r	8.aa\L	iey
.	16gg\Jk	<..>-
8r	8ff#\L	-za-
8dd\	8dd\J	-ły
=7	=7	=7
*2\right	*2\right	*ij
*tremolo	*tremolo	*
8gg\L	8bb\L	pię-
8gg\	8bb\	.
8gg\	8bb\	-kne
8gg\J	8bb\J	.
*Xtremolo	*Xtremolo	*
=8	=8	=8
8.aa\L	8.ccc\L	iey
16gg\Jk	16bb\Jk	<..>-
8ff#\L	8aa\L	-za-
8ff#\J	8aa\J	-ły
*	*	*Xij
=9	=9	=9
8gg\L	8bb\L	by
8gg\J	8bb\J	się
16bb\LL	16ddd\LL	u-
16aa\	16ccc\	-kryć
16gg\	16bb\	.
16aa\JJ	16ccc\JJ	mia-
=10	=10	=10
4bb\	4ddd\	-ły
8r	8r	.
*	*	*ij
8gg\	8bb\	by
=11	=11	=11
8ff#\L	8aa\L	się
8ff#\	8ddd\	u-
8gg\	8eee\	-kryć
8ee\J	8ccc#X\J	mia-
!!LO:LB:g=original
=12	=12	=12
4ff#\	4ddd\	-ły
*	*	*Xij
4r	4r	.
=13	=13	=13
4r	4r	.
8r	8r	.
8gg\	8bb\	by
=14	=14	=14
16gg\LL	16bb\LL	się
16aa\	16ccc\	u-
16bb\	16ddd\	-kryć
16gg\JJ	16bb\JJ	.
16ff#\LL	16aa\LL	mia-
16dd\	16ff#\	.
16gg\	16ee\	-ły
16aa\JJ	16ff#\JJ	.
=15	=15	=15
*	*^	*
4ff#\	8ryy	4dd\	.
*	*cue	*	*
.	8dd\L	.	.
!LO:N:vis=4.	!	!	!
4r	8ddd\	4r	.
.	8ddd\J	.	.
=16	=16	=16	=16
!	!LO:TX:a:t=P:problem:znak cody	!	!
!	!LO:TX:b:t=[coda]	!	!
2r	8.ddd\L	2r	.
.	16ccc#X\Jk	.	.
!	!LO:TX:a:t=c:rj	!	!
.	16ccc#\LL	.	.
.	16bb\	.	.
.	16ccc#\	.	.
.	16aa\JJ	.	.
*	*Xcue	*	*
=17	=17	=17	=17
*	*	*^	*
4r	4ryy	4gg\	4re	.
8r	8ff#/	8ff#\	8re	.
8ff#\	8ryy	8aa\	8ryy	wdzię-
*	*	*v	*v	*
*	*v	*v	*
=18	=18	=18
8ff#\L	8aa\L	-czney
8ff#\	8aa\	Ko-
8gg\	8bb\	-lei
8qgg/	8qbb/	.
8aa\J	8ccc\J	to
=19	=19	=19
8gg\L	8bb\L	sa-
8ff#\J	8aa\J	-mo
!	!LO:TX:a:t=P:problem:znak cody	!
!	!LO:TX:b:t=[coda]	!
4ryy	4r	.
=20	=20	=20
!LO:TX:a:t=I	!LO:TX:a:t=I	!
2r	2r	.
=21	=21	=21
4r	4r	.
8r	8r	.
8ff#\	8aa\	.
=22	=22	=22
8gg\L	8bb\L	za-
8bb\J	8ddd\J	-da-
16aa\LL	16ccc\LL	-ie
16bb\	16ddd\	.
16ccc\	16eee\	.
16aa\JJ	16ccc\JJ	nam
=23	=23	=23
4.gg\	4.bb\	ra-
16qqaa/LL	16qqccc/LL	.
16qqgg/	16qqbb/	.
16qqff#/	16qqaa/	.
16qqgg/JJ	16qqbb/JJ	.
!LO:N:vis=8	!	!
16bb\LL	16ddd\LL	.
!LO:N:vis=8	!	!
16aa\JJ	16ccc\JJ	.
!!LO:LB:g=original
=24	=24	=24
4ff#;>\	4aa;>\	-ny
4r	16r;>	.
.	16dd\LL	szczę-
.	16ee\	-sli-
.	16ff#\JJ	-wy
=25	=25	=25
4r	8.gg\L	Kto
.	16aa\Jk	w na-
!	!LO:N:vis=8	!
16r	32gg\	-dziei
.	32r	.
!	!LO:N:vis=32	!
*	*	*ij
16dd\LL	16ff#\LL	szczę-
16ee\	16gg\	-sli-
16ff#\JJ	16aa\JJ	-wy
=26	=26	=26
4gg\	4bb\	Kto
16aa\	16ccc\	w na-
16ff#\	16aa\	-dziei
*	*	*Xij
8r;>	8r;>	.
=27	=27	=27
16ff#/LL	8aa\	Ko-
16dd/	.	.
16ff#/	8r	.
16dd/JJ	.	.
16gg/LL	8bb\	-cha
16dd/	.	.
16gg/	8r	.
16dd/JJ	.	.
=28	=28	=28
16aa\LL	16ccc\LL	i
16gg\	16bb\	iest
16aa\	16ccc\	Ko-
16ff#\JJ	16aa\JJ	-cha-
8gg\	8bb\	-ny
8r	8r	.
=29	=29	=29
!	!LO:TX:t=P:problem:t. 30-31 zapisane repetycją	!
16ff#/LLyy	8aa\yy	Ko-
16dd/yy	.	.
16ff#/yy	8ryy	.
16dd/JJyy	.	.
16gg/LLyy	8bb\yy	-cha
16dd/yy	.	.
16gg/yy	8ryy	.
16dd/JJyy	.	.
=30	=30	=30
16aa\LLyy	16ccc\LLyy	i
16gg\yy	16bb\yy	iest
16aa\yy	16ccc\yy	Ko-
16ff#\JJyy	16aa\JJyy	-cha-
8gg\yy	8bb\yy	-ny
8ryy	8ryy	.
=31	=31	=31
4ee\	4eee\	Ko-
8aa\L	16ddd\LL	-cha
.	16ccc\	.
8ccc\J	16bb\	i
.	16aa\JJ	.
=32	=32	=32
4bb\	4ddd\	ieſt
16bb\LL	16ddd\LL	Ko-
16gg\	16bb\	-cha-
16aa\	16ccc\	-ny
16ff#\JJ	16aa\JJ	.
=33	=33	=33
8gg\	8gg\	.
8r	8r	.
16gg\LL	16bb\LL	i
16gg\	16bb\	.
16bb\	16ddd\	iest
16bb\JJ	16ddd\JJ	.
!!LO:LB:g=original
=34	=34	=34
8gg\	8bb\	Kochany
8r	8r	.
16gg\LL	16bb\LL	i
16gg\	16bb\	ieſt
16dd\	16aa\	.
16dd\JJ	16aa\JJ	.
=35	=35	=35
!LO:N:vis=4	!	!
8b\	8gg\	Ko-
!LO:N:vis=4	!	!
8r	8r	.
8b\L	8gg\L	-cha-
8dd\J	8bb\J	-ny
=36	=36	=36
4b\	4gg\	.
!LO:N:vis=2	!LO:N:vis=2	!
4r	4r	.
==	==	==
*-	*-	*-
!!!system-decoration: {s1,s2}
!!!RDF**kern: > = above
!!!RDF**kern: < = below
!!!ENC: Katarzyna Serwa
!!!END: 2021-05-16
!!!EED: Antoni Szymański
!!!EST: 2021-05-29
